_includes/icons/ios-reply-arrow.svg

<svg fill="#666" height="50" viewBox="0 0 50 50" width="50" xmlns="http://www.w3.org/2000/svg"><path d="m20.875 11c-.183594.023438-.355469.101563-.5.21875l-16 13c-.238281.191406-.375.476563-.375.78125 0 .304688.136719.589844.375.78125l16 13c.300781.242188.710938.289063 1.058594.121094s.566406-.519531.566406-.902344v-6.90625c10.605469.214844 16.09375 3.402344 18.90625 6.5625 2.863281 3.222656 3.085938 6.25 3.09375 6.34375v.0625c.015625.550781.480469.984375 1.03125.96875s.984375-.480469.96875-1.03125v-.0625-.0625c-.003906-.191406-.113281-6.175781-3.21875-12.3125-3.0625-6.054687-9.269531-12.148437-20.78125-12.5v-7.0625c.003906-.289062-.121094-.5625-.335937-.753906-.214844-.191406-.503907-.28125-.789063-.246094zm-.875 3.09375v5.90625c0 .550781.449219 1 1 1 11.511719 0 17.082031 5.671875 20 11.4375.742188 1.46875 1.296875 2.9375 1.71875 4.3125-.117187-.140625-.1875-.265625-.3125-.40625-3.316406-3.730469-9.652344-7.34375-21.40625-7.34375-.550781 0-1 .449219-1 1v5.90625l-13.40625-10.90625z"/></svg>

<svg xmlns="http://www.w3.org/2000/svg" viewBox="0 0 50 50" width="50" height="50" fill="#666"><path d="M 20.875 11 C 20.691406 11.023438 20.519531 11.101563 20.375 11.21875 L 4.375 24.21875 C 4.136719 24.410156 4 24.695313 4 25 C 4 25.304688 4.136719 25.589844 4.375 25.78125 L 20.375 38.78125 C 20.675781 39.023438 21.085938 39.070313 21.433594 38.902344 C 21.78125 38.734375 22 38.382813 22 38 L 22 31.09375 C 32.605469 31.308594 38.09375 34.496094 40.90625 37.65625 C 43.769531 40.878906 43.992188 43.90625 44 44 C 44 44 44 44.0625 44 44.0625 C 44.015625 44.613281 44.480469 45.046875 45.03125 45.03125 C 45.582031 45.015625 46.015625 44.550781 46 44 C 46 44 46 43.9375 46 43.9375 C 46 43.9375 46 43.875 46 43.875 C 45.996094 43.683594 45.886719 37.699219 42.78125 31.5625 C 39.71875 25.507813 33.511719 19.414063 22 19.0625 L 22 12 C 22.003906 11.710938 21.878906 11.4375 21.664063 11.246094 C 21.449219 11.054688 21.160156 10.964844 20.875 11 Z M 20 14.09375 L 20 20 C 20 20.550781 20.449219 21 21 21 C 32.511719 21 38.082031 26.671875 41 32.4375 C 41.742188 33.90625 42.296875 35.375 42.71875 36.75 C 42.601563 36.609375 42.53125 36.484375 42.40625 36.34375 C 39.089844 32.613281 32.753906 29 21 29 C 20.449219 29 20 29.449219 20 30 L 20 35.90625 L 6.59375 25 Z"/></svg>
